X: 33891
T: Red Island Tune
R: polka
M: 2/4
K: Gmajor
|:G2 GA|BA B2|AG GA|Bd AB|
G2 GA|BA B2|AA BA|1 GD EF:|2 GA B/c/d||
|:e>f ed|BA B2|AG GA|Bd Bd|
e>f ed|BA B2|AA BA|1 GA B/c/d:|2 GD EF||

